X:21
T:Wohlfahrt 21 Op 54 No 12
C:Franz Wohlfahrt / K.H. Aiquoni
L:1/8
Q:1/4=120
M:2/4
I:linebreak $
K:C
"C" .G(G/E/ G).G |"F" .A(A/F/ A).A |"C" .G(G/E/ G).c | .e(G/E/ G).A |"C" .G(G/E/ G).G |$ 
"F" .A(A/F/ A).A |"C" .G(G/E/ G).c | .e(G/E/ G).c |"G7" .B(B/d/ F).F |"C" .E(E/G/ c).c | 
"G7" .B(B/d/ F).F |$"C" .E(E/G/ c).c | .B(B/d/ e).B | .d(d/g/ b).B | .d(D/E/ D).^F | 
.G(G,/A,/ G,).G |$ .A(F/E/ F).B | .c(A/G/ c).E | .G(F/E/ F).B | .c(c/B/ c).e | .g(_B/c/ B).e |$ 
.d(c/B/ c).f | .d(g/a/ g).d | .e(c/d/ c).G | .A(F/E/ F).B | .d(c/B/ c).E |$ .G(F/E/ F).B | 
.d(c/B/ c).A | .^F(d/e/ d).c | .B(g/a/ g).e | .d(D/E/ D).^F |$ .G(G,/A,/ G,).A || 
"C" .G(G/E/ G).G |"F" .A(A/F/ A).A |"C" .G(G/E/ G).c | .e(G/E/ G).A |$"C" .G(G/E/ G).G | 
"F" .A(A/F/ A).A |"C" .G(G/E/ G).c | .e(G/E/ G).c |"G7" .B(B/d/ F).F |"C" .E(E/G/ c).c |$ 
"G7" .B(B/d/ F).F |"C" .E(E/G/ c).c | .a(c/d/ c).f | .d(B/c/ B).G | .c(G/A/ G).E | C2 z2 |] 


